X: 107
T: Myllypolkka
R: Polka
M: C|
L: 1/4
K: D
"D"DEFG|AA/2G/2FE|"(Em)"AA/2G/2"(A)"FE|"(Em)"AA/2G/2"(A)"FE|"D"DEFG|
AA/2G/2FE|"Em" AA/2G/2 "A" FE|"D"D4:||: "D"dddc/2d/2|"Em"ed"A"cA|
"D"dddc/2d/2|"Em"ed"A"cA|"D"dc"G"cB|"G"BA"D/F#"AF|"Em"EE/2F/2"A"GE|ED"D"D2:|]

